!!!SOCIAL_FUNCTION:	klukluwatk dance
!!!PDT:	1939
!!!OTL: No__36_Song_of_the_Kluklukwatk_Dance_(b).krn
!!!LANG: Non-Tone
!!!LING_GROUP: Wakashan
!!!REG: Pacific Northwest
**kern
*staff1
=1-
*clefF4
*k[b-]
*M2/4
4r
8r
16r
16B-\
=2
4..B-\
16B-\
=3
4.B-\
8A\
=4||
*M3/4
8G\L
8A\J
4A\
8.r
16G\
=5||
*M2/4
4..G\
16B-\
=6
4.B-\
8A\
=7
8G\L
[8A\J
4A\_
=8
2A\_
=9
=
*M3/4
4.A\]
16B-\LL
16A\JJ
8G\
8r
=10||
*M2/4
8F\L
8G\J
[4G\
=11
2G\]
=12
4..r
16G\
=13
2G\
=14
4..r
16G\
=15
4..G\
16B-\
=16
4.B-\
8A\
=17
8G\L
[8A\J
4A\_
=18
2A\_
=19
4A\]
4r
==
*-
